src/pos-icons/water-well-outline.svg

<svg height="24" viewBox="0 0 24 24" width="24" xmlns="http://www.w3.org/2000/svg"><path d="m3.62 8h1.38v7h2v-7h4v2h2v-2h4v7h2v-7h1.61c.55 0 1-.44 1-1 0-.11-.01-.22-.05-.32l-2.56-4.68h-14l-2.28 4.55c-.25.49-.05 1.09.44 1.34.15.07.3.11.46.11m2.62-4h11.52l1 2h-13.52zm-4.24 12v2h2v4h16v-4h2v-2zm16 4h-12v-2h12zm-4.07-9c.28 0 .5.22.5.5v.06l-.38 3c-.05.25-.24.44-.49.44h-3.12c-.25 0-.44-.19-.49-.44l-.38-3c-.03-.27.16-.52.43-.56h.07z"/></svg>

<?xml version="1.0" encoding="UTF-8"?><!DOCTYPE svg PUBLIC "-//W3C//DTD SVG 1.1//EN" "http://www.w3.org/Graphics/SVG/1.1/DTD/svg11.dtd"><svg xmlns="http://www.w3.org/2000/svg" xmlns:xlink="http://www.w3.org/1999/xlink" version="1.1" id="mdi-water-well-outline" width="24" height="24" viewBox="0 0 24 24"><path d="M3.62 8H5V15H7V8H11V10H13V8H17V15H19V8H20.61C21.16 8 21.61 7.56 21.61 7C21.61 6.89 21.6 6.78 21.56 6.68L19 2H5L2.72 6.55C2.47 7.04 2.67 7.64 3.16 7.89C3.31 7.96 3.46 8 3.62 8M6.24 4H17.76L18.76 6H5.24L6.24 4M2 16V18H4V22H20V18H22V16H2M18 20H6V18H18V20M13.93 11C14.21 11 14.43 11.22 14.43 11.5C14.43 11.5 14.43 11.54 14.43 11.56L14.05 14.56C14 14.81 13.81 15 13.56 15H10.44C10.19 15 10 14.81 9.95 14.56L9.57 11.56C9.54 11.29 9.73 11.04 10 11C10.03 11 10.05 11 10.07 11H13.93Z" /></svg>
